X: 2311
T: Polska efter Lars Henriksson
S: efter [[Personer/Lars Henriksson]] ("Lars på Konterud")
O: Värmland, Konterud, Gräsmark
N: I originalnoterna står noterna i triolerna som sextondelar.
B: [[http://www.smus.se/earkiv/fmk/browselarge.php?lang=sw&katalogid=Ds+1%2C+Vr+5&bildnr=00137|SMUS katalog Ds1+Vr5 bild 135]]
R: Polska
Z: Nils L
M: 3/4
L: 1/8
K: Dm
A>G (3ABc A2 | d>e f>e d2 | f>e f>a g>f | d>f e>c A2 |
A>G (3ABc A2 | d>e f>e d2 | f>e f>a g>f | d2 e4 ::
e>d e>f g>e | (3def e>c A2 | A>G A>B c>A | G>B A>E "^c?"A,2 |
e>d e>f g>e | (3def e>c A2 | A>G A>B c>A | (3GAB A4 :|
(:musicend:)

%blue% ''Ska tonarten vara Dm eller A-frygisk? Den som är bra på tonartsanalys får gärna komma med litet input. /Nils''
(:music:)
